icon_installer/data/icons/scalable/actions/show-list-compact-symbolic.svg

<?xml version="1.0" encoding="UTF-8"?>
<svg height="16px" viewBox="0 0 16 16" width="16px" xmlns="http://www.w3.org/2000/svg">
    <path d="m 2.386719 3 c -0.214844 0 -0.386719 0.167969 -0.386719 0.378906 v 1.242188 c 0 0.210937 0.171875 0.378906 0.386719 0.378906 h 1.230469 c 0.210937 0 0.382812 -0.167969 0.382812 -0.378906 v -1.242188 c 0 -0.210937 -0.171875 -0.378906 -0.382812 -0.378906 z m 3.613281 0 v 2 h 8 v -2 z m -3.613281 4 c -0.214844 0 -0.386719 0.167969 -0.386719 0.378906 v 1.242188 c 0 0.210937 0.171875 0.378906 0.386719 0.378906 h 1.230469 c 0.210937 0 0.382812 -0.167969 0.382812 -0.378906 v -1.242188 c 0 -0.210937 -0.171875 -0.378906 -0.382812 -0.378906 z m 3.613281 0 v 2 h 8 v -2 z m -3.613281 4 c -0.214844 0 -0.386719 0.167969 -0.386719 0.378906 v 1.242188 c 0 0.210937 0.171875 0.378906 0.386719 0.378906 h 1.230469 c 0.210937 0 0.382812 -0.167969 0.382812 -0.378906 v -1.242188 c 0 -0.210937 -0.171875 -0.378906 -0.382812 -0.378906 z m 3.613281 0 v 2 h 8 v -2 z m 0 0" fill="#222222"/>
</svg>

<svg xmlns="http://www.w3.org/2000/svg" width="16" height="16"><path fill="#222" d="M2.387 3A.381.381 0 0 0 2 3.379V4.62c0 .211.172.379.387.379h1.23A.38.38 0 0 0 4 4.621V3.38A.38.38 0 0 0 3.617 3zM6 3v2h8V3zM2.387 7A.381.381 0 0 0 2 7.379V8.62c0 .211.172.379.387.379h1.23A.38.38 0 0 0 4 8.621V7.38A.38.38 0 0 0 3.617 7zM6 7v2h8V7zm-3.613 4a.381.381 0 0 0-.387.379v1.242c0 .211.172.379.387.379h1.23A.38.38 0 0 0 4 12.621V11.38a.38.38 0 0 0-.383-.38zM6 11v2h8v-2zm0 0"/></svg>
